actions/symbolic/mail-reply-all-symbolic.svg

<svg height="16" width="16" xmlns="http://www.w3.org/2000/svg">
    <g color="#000" fill="gray">
        <path d="M11 4v4.5c0 1.25-.393 1.759-1.023 2.09-.631.33-1.594.41-2.606.41H2.83v1h8.541c1.052 0 2.153-.044 3.07-.525C15.36 10.993 16 10 16 8.5V4h-1v4.5c0 1.25-.393 1.759-1.023 2.09-.631.33-1.594.41-2.606.41h-.283c.558-.553.912-1.386.912-2.5V4z" style="line-height:normal;font-variant-ligatures:none;font-variant-position:normal;font-variant-caps:normal;font-variant-numeric:normal;font-variant-alternates:normal;font-feature-settings:normal;text-indent:0;text-align:start;text-decoration-line:none;text-decoration-style:solid;text-decoration-color:#000;text-transform:none;shape-padding:0;isolation:auto;mix-blend-mode:normal;marker:none" font-weight="400" font-family="sans-serif" white-space="normal" overflow="visible"/>
        <path d="M5 9l-.002 5a36.975 36.975 0 0 1-2.323-1.166c-.78-.431-1.534-.876-2.259-1.334.725-.449 1.478-.889 2.26-1.32.788-.43 1.562-.823 2.323-1.18z" style="marker:none" overflow="visible"/>
    </g>
</svg>

<?xml version="1.0" encoding="UTF-8" standalone="no"?>
<svg
   xmlns:dc="http://purl.org/dc/elements/1.1/"
   xmlns:cc="http://creativecommons.org/ns#"
   xmlns:rdf="http://www.w3.org/1999/02/22-rdf-syntax-ns#"
   xmlns:svg="http://www.w3.org/2000/svg"
   xmlns="http://www.w3.org/2000/svg"
   xmlns:sodipodi="http://sodipodi.sourceforge.net/DTD/sodipodi-0.dtd"
   xmlns:inkscape="http://www.inkscape.org/namespaces/inkscape"
   height="16"
   width="16"
   version="1.1"
   id="svg8"
   sodipodi:docname="mail-reply-all-symbolic.svg"
   inkscape:version="0.92.3 (2405546, 2018-03-11)">
  <metadata
     id="metadata14">
    <rdf:RDF>
      <cc:Work
         rdf:about="">
        <dc:format>image/svg+xml</dc:format>
        <dc:type
           rdf:resource="http://purl.org/dc/dcmitype/StillImage" />
      </cc:Work>
    </rdf:RDF>
  </metadata>
  <defs
     id="defs12" />
  <sodipodi:namedview
     pagecolor="#ffffff"
     bordercolor="#666666"
     borderopacity="1"
     objecttolerance="10"
     gridtolerance="10"
     guidetolerance="10"
     inkscape:pageopacity="0"
     inkscape:pageshadow="2"
     inkscape:window-width="770"
     inkscape:window-height="480"
     id="namedview10"
     showgrid="false"
     inkscape:zoom="14.75"
     inkscape:cx="8"
     inkscape:cy="8"
     inkscape:window-x="0"
     inkscape:window-y="34"
     inkscape:window-maximized="0"
     inkscape:current-layer="svg8" />
  <g
     id="g6"
     transform="matrix(1,0,0,-1,0,18)"
     style="color:#000000;fill:#808080">
    <path
       d="M 11,4 V 8.5 C 11,9.75 10.607,10.259 9.977,10.59 9.346,10.92 8.383,11 7.371,11 H 2.83 v 1 h 8.541 c 1.052,0 2.153,-0.044 3.07,-0.525 C 15.36,10.993 16,10 16,8.5 V 4 h -1 v 4.5 c 0,1.25 -0.393,1.759 -1.023,2.09 C 13.346,10.92 12.383,11 11.371,11 H 11.088 C 11.646,10.447 12,9.614 12,8.5 V 4 Z"
       style="font-weight:400;line-height:normal;font-family:sans-serif;font-variant-ligatures:none;font-variant-position:normal;font-variant-caps:normal;font-variant-numeric:normal;font-variant-alternates:normal;font-feature-settings:normal;text-indent:0;text-align:start;text-decoration:none;text-decoration-line:none;text-decoration-style:solid;text-decoration-color:#000000;text-transform:none;white-space:normal;shape-padding:0;overflow:visible;isolation:auto;mix-blend-mode:normal;marker:none"
       font-weight="400"
       overflow="visible"
       id="path2"
       inkscape:connector-curvature="0" />
    <path
       d="M 5,9 4.998,14 A 36.975,36.975 0 0 1 2.675,12.834 C 1.895,12.403 1.141,11.958 0.416,11.5 1.141,11.051 1.894,10.611 2.676,10.18 3.464,9.75 4.238,9.357 4.999,9 Z"
       style="overflow:visible;marker:none"
       overflow="visible"
       id="path4"
       inkscape:connector-curvature="0" />
  </g>
</svg>
